X:296
T:Midnight on the Water
C:Kessinger
N: Baldassari
R:bluegrass
L:1/8
Q:1/4=200
M:3/4
K:C
z4 DE |: "D"[A2^F2] [A2F2] [A2F2] | [A2^F2] [A2F2] [A2F2] | [A3/2^F3/2]z/ AA AB | 
A2 {E}^FE DF | A2 [d3D3]B | A3E DE | "A"{E}^F2 AF EF |1 D2 [A2D2] [AD][AE] :|2 D3D A/B/^c | 
|: [d4D4] de | d^c BA Bc | [d3D3]B A^F | D3D ^F2 | "Em"[e4G4] e^f | e2 d2 e2 | 
"Bm"[^f3B3]a fe | d^c BA Bc | "G"[d2B2] dB dB | [d2B2] [^c2A2] [B2G2] | "D"A2 AB AG | 
[A3^F3]E DF | A2 [d3D3]B | A3^F DE | "A"{E}^F2 AF EF |1 D4 A/B/^c :|2 D6 | 


